images/mountain.svg

<?xml version="1.0" encoding="iso-8859-1"?>
<!-- Generator: Adobe Illustrator 19.0.0, SVG Export Plug-In . SVG Version: 6.00 Build 0)  -->
<svg xmlns="http://www.w3.org/2000/svg" xmlns:xlink="http://www.w3.org/1999/xlink" version="1.1" id="Capa_1" x="0px" y="0px" viewBox="0 0 512 512" style="enable-background:new 0 0 512 512;" xml:space="preserve" width="512px" height="512px">
<g>
	<g>
		<rect x="247.467" y="8.533" width="17.067" height="93.867" fill="#a4a4a4"/>
	</g>
</g>
<g>
	<g>
		<path d="M311.014,26.496l-51.2-25.6c-2.645-1.314-5.786-1.178-8.303,0.375c-2.509,1.562-4.045,4.301-4.045,7.262v51.2    c0,2.953,1.536,5.7,4.045,7.262c1.374,0.845,2.927,1.271,4.489,1.271c1.306,0,2.611-0.299,3.814-0.896l51.2-25.6    c2.893-1.451,4.719-4.403,4.719-7.637S313.907,27.947,311.014,26.496z M264.533,45.926V22.34l23.586,11.793L264.533,45.926z" fill="#a4a4a4"/>
	</g>
</g>
<g>
	<g>
		<path d="M348.425,148.864c-1.613-2.441-4.42-4.105-7.296-3.797c-2.927,0.068-5.606,1.63-7.117,4.139l-18.5,30.831l-52.318-82.219    c-1.527-2.406-4.156-3.883-7.006-3.951c-3.285-0.068-5.555,1.306-7.185,3.644l-59.733,85.333l13.986,9.779l52.403-74.863    l52.872,83.081c1.579,2.492,4.233,3.874,7.305,3.951c2.961-0.043,5.683-1.604,7.211-4.139l18.671-31.104l43.716,65.579    l14.191-9.464L348.425,148.864z" fill="#a4a4a4"/>
	</g>
</g>
<g>
	<g>
		<path d="M177.408,148.352c-1.621-2.074-4.105-3.294-6.741-3.294c-0.017,0-0.026,0-0.034,0c-2.654,0.017-5.146,1.254-6.75,3.354    L52.949,293.478l13.559,10.368l104.218-136.286l52.941,68.07l13.474-10.479L177.408,148.352z" fill="#a4a4a4"/>
	</g>
</g>
<g>
	<g>
		<path d="M330.94,498.133L262.673,412.8c-1.519-1.894-3.78-3.046-6.195-3.183c-2.423-0.137-4.796,0.768-6.511,2.483L207.3,454.767    l12.066,12.066l35.925-35.925l51.217,64.026H17.067V301.508l17.357-23.142l69.905,85.436l13.21-10.803l-76.8-93.867    c-1.664-2.031-4.233-3.2-6.784-3.132c-2.628,0.051-5.077,1.314-6.648,3.413l-25.6,34.133C0.597,295.023,0,296.815,0,298.667v204.8    C0,508.186,3.823,512,8.533,512h315.733c3.285,0,6.263-1.886,7.697-4.83C333.38,504.209,332.988,500.702,330.94,498.133z" fill="#a4a4a4"/>
	</g>
</g>
<g>
	<g>
		<path d="M417.229,192.444c-1.34-2.68-3.977-4.463-6.963-4.693c-2.987-0.222-5.871,1.109-7.612,3.55l-42.667,59.733l13.884,9.916    l34.432-48.196l70.46,140.928l15.266-7.637L417.229,192.444z" fill="#a4a4a4"/>
	</g>
</g>
<g>
	<g>
		<path d="M146.825,326.81c-1.647-1.963-3.925-2.901-6.639-3.055c-2.56,0.034-4.966,1.212-6.571,3.208L78.66,395.742l13.338,10.65    l48.435-60.621l15.147,18.099l13.09-10.948L146.825,326.81z" fill="#a4a4a4"/>
	</g>
</g>
<g>
	<g>
		<path d="M506.735,324.915c-3.191-1.323-6.852-0.589-9.301,1.852l-45.798,45.798l-36.702-29.363    c-3.388-2.714-8.286-2.449-11.366,0.631l-25.6,25.6l12.066,12.066l20.198-20.198l36.702,29.363    c3.379,2.705,8.286,2.449,11.366-0.631l36.634-36.634v141.534H324.267V512h179.2c4.719,0,8.533-3.823,8.533-8.533V332.8    C512,329.344,509.926,326.229,506.735,324.915z" fill="#a4a4a4"/>
	</g>
</g>
<g>
	<g>
		<rect x="59.733" y="443.733" width="17.067" height="25.6" fill="#a4a4a4"/>
	</g>
</g>
<g>
	<g>
		<path d="M101.965,432.504l-25.6-76.8c-1.161-3.49-4.42-5.837-8.098-5.837s-6.929,2.347-8.098,5.837l-25.6,76.8    c-0.862,2.594-0.427,5.461,1.178,7.689c1.604,2.227,4.181,3.541,6.921,3.541h51.2c2.739,0,5.316-1.323,6.921-3.541    C102.392,437.973,102.835,435.106,101.965,432.504z M54.502,426.667l13.764-41.284l13.764,41.284H54.502z" fill="#a4a4a4"/>
	</g>
</g>
<g>
	<g>
		<rect x="170.667" y="392.533" width="17.067" height="25.6" fill="#a4a4a4"/>
	</g>
</g>
<g>
	<g>
		<path d="M212.898,381.303l-25.6-76.8c-1.161-3.49-4.42-5.837-8.098-5.837s-6.929,2.347-8.098,5.837l-25.6,76.8    c-0.862,2.594-0.427,5.461,1.178,7.689c1.604,2.227,4.181,3.541,6.921,3.541h51.2c2.739,0,5.316-1.323,6.921-3.541    C213.325,386.773,213.769,383.906,212.898,381.303z M165.436,375.467l13.764-41.284l13.764,41.284H165.436z" fill="#a4a4a4"/>
	</g>
</g>
<g>
	<g>
		
			<rect x="196.283" y="374.585" transform="matrix(0.7593 -0.6508 0.6508 0.7593 -220.0666 232.9336)" width="17.067" height="78.68" fill="#a4a4a4"/>
	</g>
</g>
<g>
	<g>
		<path d="M161.698,500.77l-25.6-76.8c-1.161-3.49-4.42-5.837-8.098-5.837c-3.678,0-6.929,2.347-8.098,5.837l-25.6,76.8    c-0.862,2.594-0.427,5.461,1.178,7.689c1.604,2.227,4.181,3.541,6.921,3.541h51.2c2.739,0,5.316-1.323,6.921-3.541    C162.125,506.24,162.569,503.373,161.698,500.77z M114.236,494.933L128,453.649l13.764,41.284H114.236z" fill="#a4a4a4"/>
	</g>
</g>
<g>
	<g>
		<rect x="366.933" y="435.2" width="17.067" height="25.6" fill="#a4a4a4"/>
	</g>
</g>
<g>
	<g>
		<path d="M409.156,423.97l-25.6-76.8c-1.152-3.49-4.412-5.837-8.09-5.837s-6.929,2.347-8.098,5.837l-25.6,76.8    c-0.87,2.594-0.435,5.461,1.169,7.689c1.613,2.227,4.19,3.541,6.929,3.541h51.2c2.739,0,5.316-1.323,6.921-3.541    C409.592,429.44,410.035,426.573,409.156,423.97z M361.711,418.133l13.756-41.284l13.764,41.284H361.711z" fill="#a4a4a4"/>
	</g>
</g>
<g>
	<g>
		
			<rect x="267.001" y="414.937" transform="matrix(0.7353 -0.6777 0.6777 0.7353 -201.739 330.3825)" width="110.213" height="17.066" fill="#a4a4a4"/>
	</g>
</g>
<g>
	<g>
		<rect x="443.733" y="469.333" width="17.067" height="25.6" fill="#a4a4a4"/>
	</g>
</g>
<g>
	<g>
		<path d="M485.956,458.103l-25.6-76.8c-1.152-3.49-4.412-5.837-8.09-5.837c-3.678,0-6.929,2.347-8.098,5.837l-25.6,76.8    c-0.87,2.594-0.435,5.461,1.169,7.689c1.613,2.227,4.19,3.541,6.929,3.541h51.2c2.739,0,5.316-1.323,6.921-3.541    S486.835,460.706,485.956,458.103z M438.511,452.267l13.756-41.284l13.764,41.284H438.511z" fill="#a4a4a4"/>
	</g>
</g>
<g>
	<g>
		<path d="M254.02,199.339c-3.243-3.891-9.865-3.891-13.107,0l-42.667,51.2l13.107,10.931l36.113-43.341l36.105,43.332    l13.116-10.923L254.02,199.339z" fill="#a4a4a4"/>
	</g>
</g>
<g>
</g>
<g>
</g>
<g>
</g>
<g>
</g>
<g>
</g>
<g>
</g>
<g>
</g>
<g>
</g>
<g>
</g>
<g>
</g>
<g>
</g>
<g>
</g>
<g>
</g>
<g>
</g>
<g>
</g>
</svg>

<svg width="512" height="512" viewBox="0 0 512 512" fill="none" xmlns="http://www.w3.org/2000/svg">
<g clip-path="url(#clip0_69_114)">
<path d="M264.534 8.53296H247.467V102.4H264.534V8.53296Z" fill="#E4C51D"/>
<path d="M311.014 26.4959L259.814 0.895917C257.169 -0.418083 254.028 -0.282084 251.511 1.27092C249.002 2.83292 247.466 5.57192 247.466 8.53292V59.7329C247.466 62.6859 249.002 65.4329 251.511 66.9949C252.885 67.8399 254.438 68.2659 256 68.2659C257.306 68.2659 258.611 67.9669 259.814 67.3699L311.014 41.7699C313.907 40.3189 315.733 37.3669 315.733 34.1329C315.733 30.8989 313.907 27.9469 311.014 26.4959ZM264.533 45.9259V22.3399L288.119 34.1329L264.533 45.9259Z" fill="#E4C51D"/>
<path d="M348.425 148.864C346.812 146.423 344.005 144.759 341.129 145.067C338.202 145.135 335.523 146.697 334.012 149.206L315.512 180.037L263.194 97.8179C261.667 95.4119 259.038 93.9349 256.188 93.8669C252.903 93.7989 250.633 95.1729 249.003 97.5109L189.27 182.844L203.256 192.623L255.659 117.76L308.531 200.841C310.11 203.333 312.764 204.715 315.836 204.792C318.797 204.749 321.519 203.188 323.047 200.653L341.718 169.549L385.434 235.128L399.625 225.664L348.425 148.864Z" fill="#E4C51D"/>
<path d="M177.408 148.352C175.787 146.278 173.303 145.058 170.667 145.058C170.65 145.058 170.641 145.058 170.633 145.058C167.979 145.075 165.487 146.312 163.883 148.412L52.949 293.478L66.508 303.846L170.726 167.56L223.667 235.63L237.141 225.151L177.408 148.352Z" fill="#E4C51D"/>
<path d="M330.94 498.133L262.673 412.8C261.154 410.906 258.893 409.754 256.478 409.617C254.055 409.48 251.682 410.385 249.967 412.1L207.3 454.767L219.366 466.833L255.291 430.908L306.508 494.934H17.067V301.508L34.424 278.366L104.329 363.802L117.539 352.999L40.739 259.132C39.075 257.101 36.506 255.932 33.955 256C31.327 256.051 28.878 257.314 27.307 259.413L1.707 293.546C0.597 295.023 0 296.815 0 298.667V503.467C0 508.186 3.823 512 8.533 512H324.266C327.551 512 330.529 510.114 331.963 507.17C333.38 504.209 332.988 500.702 330.94 498.133Z" fill="#E4C51D"/>
<path d="M417.229 192.444C415.889 189.764 413.252 187.981 410.266 187.751C407.279 187.529 404.395 188.86 402.654 191.301L359.987 251.034L373.871 260.95L408.303 212.754L478.763 353.682L494.029 346.045L417.229 192.444Z" fill="#E4C51D"/>
<path d="M146.825 326.81C145.178 324.847 142.9 323.909 140.186 323.755C137.626 323.789 135.22 324.967 133.615 326.963L78.66 395.742L91.998 406.392L140.433 345.771L155.58 363.87L168.67 352.922L146.825 326.81Z" fill="#E4C51D"/>
<path d="M506.735 324.915C503.544 323.592 499.883 324.326 497.434 326.767L451.636 372.565L414.934 343.202C411.546 340.488 406.648 340.753 403.568 343.833L377.968 369.433L390.034 381.499L410.232 361.301L446.934 390.664C450.313 393.369 455.22 393.113 458.3 390.033L494.934 353.399V494.933H324.267V512H503.467C508.186 512 512 508.177 512 503.467V332.8C512 329.344 509.926 326.229 506.735 324.915Z" fill="#E4C51D"/>
<path d="M76.8 443.733H59.733V469.333H76.8V443.733Z" fill="#E4C51D"/>
<path d="M101.965 432.504L76.365 355.704C75.204 352.214 71.945 349.867 68.267 349.867C64.589 349.867 61.338 352.214 60.169 355.704L34.569 432.504C33.707 435.098 34.142 437.965 35.747 440.193C37.351 442.42 39.928 443.734 42.668 443.734H93.868C96.607 443.734 99.184 442.411 100.789 440.193C102.392 437.973 102.835 435.106 101.965 432.504ZM54.502 426.667L68.266 385.383L82.03 426.667H54.502Z" fill="#E4C51D"/>
<path d="M187.734 392.533H170.667V418.133H187.734V392.533Z" fill="#E4C51D"/>
<path d="M212.898 381.303L187.298 304.503C186.137 301.013 182.878 298.666 179.2 298.666C175.522 298.666 172.271 301.013 171.102 304.503L145.502 381.303C144.64 383.897 145.075 386.764 146.68 388.992C148.284 391.219 150.861 392.533 153.601 392.533H204.801C207.54 392.533 210.117 391.21 211.722 388.992C213.325 386.773 213.769 383.906 212.898 381.303ZM165.436 375.467L179.2 334.183L192.964 375.467H165.436Z" fill="#E4C51D"/>
<path d="M185.71 378.508L172.751 389.615L223.956 449.357L236.915 438.25L185.71 378.508Z" fill="#E4C51D"/>
<path d="M161.698 500.77L136.098 423.97C134.937 420.48 131.678 418.133 128 418.133C124.322 418.133 121.071 420.48 119.902 423.97L94.302 500.77C93.44 503.364 93.875 506.231 95.48 508.459C97.084 510.686 99.661 512 102.401 512H153.601C156.34 512 158.917 510.677 160.522 508.459C162.125 506.24 162.569 503.373 161.698 500.77ZM114.236 494.933L128 453.649L141.764 494.933H114.236Z" fill="#E4C51D"/>
<path d="M384 435.2H366.933V460.8H384V435.2Z" fill="#E4C51D"/>
<path d="M409.156 423.97L383.556 347.17C382.404 343.68 379.144 341.333 375.466 341.333C371.788 341.333 368.537 343.68 367.368 347.17L341.768 423.97C340.898 426.564 341.333 429.431 342.937 431.659C344.55 433.886 347.127 435.2 349.866 435.2H401.066C403.805 435.2 406.382 433.877 407.987 431.659C409.592 429.44 410.035 426.573 409.156 423.97ZM361.711 418.133L375.467 376.849L389.231 418.133H361.711Z" fill="#E4C51D"/>
<path d="M356.829 379.848L275.79 454.539L287.355 467.088L368.395 392.396L356.829 379.848Z" fill="#E4C51D"/>
<path d="M460.8 469.333H443.733V494.933H460.8V469.333Z" fill="#E4C51D"/>
<path d="M485.956 458.103L460.356 381.303C459.204 377.813 455.944 375.466 452.266 375.466C448.588 375.466 445.337 377.813 444.168 381.303L418.568 458.103C417.698 460.697 418.133 463.564 419.737 465.792C421.35 468.019 423.927 469.333 426.666 469.333H477.866C480.605 469.333 483.182 468.01 484.787 465.792C486.392 463.574 486.835 460.706 485.956 458.103ZM438.511 452.267L452.267 410.983L466.031 452.267H438.511Z" fill="#E4C51D"/>
<path d="M254.02 199.339C250.777 195.448 244.155 195.448 240.913 199.339L198.246 250.539L211.353 261.47L247.466 218.129L283.571 261.461L296.687 250.538L254.02 199.339Z" fill="#E4C51D"/>
</g>
<defs>
<clipPath id="clip0_69_114">
<rect width="512" height="512" fill="white"/>
</clipPath>
</defs>
</svg>
